assets/img/linkedin.svg

<svg width="15" height="16" viewBox="0 0 15 16" fill="none" xmlns="http://www.w3.org/2000/svg">
<path d="M14.9963 15.4999V15.4993H15V9.98076C15 7.28105 14.4247 5.20142 11.3003 5.20142C9.79836 5.20142 8.79042 6.03402 8.37893 6.82337H8.33549V5.45346H5.37314V15.4993H8.45776V10.525C8.45776 9.21524 8.70353 7.94877 10.3091 7.94877C11.8912 7.94877 11.9148 9.44345 11.9148 10.609V15.4999H14.9963Z" fill="#F7F7EE"/>
<path d="M0.223846 5.42554H3.35818V15.2763H0.223846V5.42554Z" fill="#F7F7EE"/>
<path d="M1.79104 0.5C0.802303 0.5 0 1.29856 0 2.28269C0 3.26683 0.802303 4.08209 1.79104 4.08209C2.77979 4.08209 3.58209 3.26683 3.58209 2.28269C3.58147 1.29856 2.77916 0.5 1.79104 0.5V0.5Z" fill="#F7F7EE"/>
</svg>

<svg xmlns="http://www.w3.org/2000/svg" width="15" height="16" fill="none"><path fill="#F7F7EE" d="M14.996 15.5H15V9.98c0-2.699-.575-4.779-3.7-4.779-1.502 0-2.51.833-2.921 1.622h-.044v-1.37H5.373V15.5h3.085v-4.974c0-1.31.246-2.576 1.851-2.576 1.582 0 1.606 1.494 1.606 2.66v4.89h3.081ZM.224 5.426h3.134v9.85H.224v-9.85ZM1.791.5C.802.5 0 1.299 0 2.283c0 .984.802 1.8 1.791 1.8.989 0 1.791-.816 1.791-1.8C3.582 1.299 2.78.5 1.791.5Z"/></svg>
